X:1
T: Miss Field's Strathspey
C:
R:Strathspey
Q: 128
K:G
M:4/4
L:1/16
|:G,G3 G3D B,G3 G3D|A,A3 A3G FD3 EF3|G,G3 G3D E3G ce3|d3B dcBA BG3 G4|
G,G3 G3D B,G3 G3D|A,A3 A3G FD3 EF3|G,G3 G3D E3G ce3|d3B dcBA BG3 G4|
bag2 dg3 Bg3 dg3|c3g B3g A2a2 a2ga|bag2 dg3 e3g d3g|c3a fd3 g3f g2a2|
bag2 dg3 Bg3 dg3|c3g B3g A2a2 a2ga|bg3 fa3 gd3 e3B|c3e dcBA BG3 G4:|
